X: 6
T: The Recruiting Officer
M: 6/8
L: 1/8
R: jig
F: http://www.thesession.org/tunes/display/7171
K: Dmaj
A |: d>ef edc | d>cB AGF | G>AB AGF | E2E E2A |\
d>ef edc | B<dB A2G | FdF E2c |1 d3 dzA :|2 d3 dzd ||
f>ga afd | f3 a2c | B>cd e2e | fed c2A |\
afd ecA | B/2c/2dB A2F | G>FE Ddc | d3 dzd :|

%%sep 2 1 500

